X:47
T: Der betruegerische Freier
N: Q0042A
O: Mitteleuropa, Deutschland (BRD) , nord - deutsch; Rheinprovinz
R: Ballade, Braut - Werbung, Betrug; tragisch
M: 2/4
L: 1/16
K: E
B,2 | E2E2EGBG | FEDCB,2
B,2 | E2F2G2G2 | F4z2
FG | A2AAA2GF | B3cA2
GF | E2E2D2EF | E4z2

@@@ Tune index: 783
